X:1
T:Simple Gifts
C:Joseph Brackett
L:1/4
M:4/4
I:linebreak $
K:C
V:1 treble nm="MusicXML Part" snm="Pno"
V:1
 G,/G,/ |"C" C C/D/ E/C/ E/F/ |"Em" G G/F/ E D/C/ |"Dm" D D D D |"G7" D/E/ D/B,/ G, G, |$ %5
"C" C C/D/ E/C/ E/F/ |"Em" G G/F/ E D/C/ |"Dm" D D"G" E E/D/ |"C" C"F" C"C" C2 |$"C" G2 E3/2 D/ | %10
"G7" E/F/ E/D/"C" C3/2 D/ |"Em" E E/F/ G F/E/ |"Dm" D D/E/"G7" D3/2 G,/ |$"C" C2 C3/2 D/ | %14
"Em" E E/F/ G G/G/ |"Dm" D D"G7" E E/D/ |"C" C"F" C"C" C | %17
